icons/fill-new-office-data-board-analysis.svg

<svg xmlns="http://www.w3.org/2000/svg" width="32px" height="32px" viewBox="0 0 32 32" version="1.1">
    <title>fill-new-office-data-board-analysis</title>
    <g id="fill-new-office-data-board-analysis" stroke-width="1" fill-rule="evenodd">
        <path d="M30,3 C30.5522847,3 31,3.44771525 31,4 C31,4.55228475 30.5522847,5 30,5 L28,5 L28,22 C28,22.5522847 27.5522847,23 27,23 L20.748,23 L24.277,28.9999799 L21.957,28.9999799 L18.428,23 L13.571,23 L10.042,28.9999799 L7.723,28.9999799 L11.251,23 L5,23 C4.44771525,23 4,22.5522847 4,22 L4,5 L2,5 C1.44771525,5 1,4.55228475 1,4 C1,3.44771525 1.44771525,3 2,3 L30,3 Z M11,13 C10.4477153,13 10,13.4477153 10,14 L10,16 C10,16.5522847 10.4477153,17 11,17 C11.5522847,17 12,16.5522847 12,16 L12,14 C12,13.4477153 11.5522847,13 11,13 Z M16,11 C15.4477153,11 15,11.4477153 15,12 L15,16 C15,16.5522847 15.4477153,17 16,17 C16.5522847,17 17,16.5522847 17,16 L17,12 C17,11.4477153 16.5522847,11 16,11 Z M21,9 C20.4477153,9 20,9.44771525 20,10 L20,16 C20,16.5522847 20.4477153,17 21,17 C21.5522847,17 22,16.5522847 22,16 L22,10 C22,9.44771525 21.5522847,9 21,9 Z" id="&#24418;&#29366;" />
    </g>
</svg>

<svg xmlns="http://www.w3.org/2000/svg" viewBox="0 0 32 32"><path fill="currentColor" d="M30 3a1 1 0 0 1 0 2h-2v17a1 1 0 0 1-1 1h-6.252l3.529 6h-2.32l-3.529-6h-4.857l-3.529 6H7.723l3.528-6H5a1 1 0 0 1-1-1V5H2a1 1 0 1 1 0-2zM11 13a1 1 0 0 0-1 1v2a1 1 0 0 0 2 0v-2a1 1 0 0 0-1-1m5-2a1 1 0 0 0-1 1v4a1 1 0 0 0 2 0v-4a1 1 0 0 0-1-1m5-2a1 1 0 0 0-1 1v6a1 1 0 0 0 2 0v-6a1 1 0 0 0-1-1"/></svg>
